PortableApps/LibreOfficePortable/App/libreoffice/help/media/icon-themes/cmd/sc_definename.svg

<svg viewBox="0 0 16 16" xmlns="http://www.w3.org/2000/svg"><path d="m9 0-3 3v2.5c0 .277-.223.5-.5.5h-2.5l-3 3 6 7 10-8v-8zm2 3c1.104569 0 2 .8954305 2 2s-.895431 2-2 2-2-.8954305-2-2 .895431-2 2-2z" fill="#fff"/><g fill="#808080"><path d="m9 0-3 3v1.4277344l3.3867188-3.4277344h5.6132812v6.5585938l-8.9667969 7.0605472-4.5839843-5.5839848 2.9980468-3.0351562h-1.4472656l-3 3 6 7 10-8v-8z" fill="#808080"/><path d="m11 3a2 2 0 0 0 -2 2 2 2 0 0 0 2 2 2 2 0 0 0 2-2 2 2 0 0 0 -2-2zm0 1a1 1 0 0 1 1 1 1 1 0 0 1 -1 1 1 1 0 0 1 -1-1 1 1 0 0 1 1-1z"/></g><g fill="#eac282"><rect height="1" ry=".5" width="3"/><rect height="3" rx=".5" width="1"/><path d="m.4999293 4.5 4-4v4z" fill-rule="evenodd" stroke="#eac282" stroke-linecap="round" stroke-linejoin="round"/></g></svg>

<svg viewBox="0 0 16 16" xmlns="http://www.w3.org/2000/svg">
 <path
   style="fill:#ffffff"
   d="M 9,0 0,9 6,16 16,8 V 0 Z m 2,3 c 1.104569,0 2,0.8954305 2,2 0,1.1045695 -0.895431,2 -2,2 C 9.895431,7 9,6.1045695 9,5 9,3.8954305 9.895431,3 11,3 Z" />
<path
   style="fill:#808080"
   d="M 9,0 0,9 6,16 16,8 V 0 Z M 9.386719,1 H 15 V 7.558594 L 6.033203,14.619141 1.4492188,9.035156 Z"
   />
<path
   style="fill:#808080"
   d="M 11,3 A 2,2 0 0 0 9,5 2,2 0 0 0 11,7 2,2 0 0 0 13,5 2,2 0 0 0 11,3 Z m 0,1 a 1,1 0 0 1 1,1 1,1 0 0 1 -1,1 1,1 0 0 1 -1,-1 1,1 0 0 1 1,-1 z"
   />
</svg>
